X:1
T:Title
L:1/8
M:4/4
K:Eb
V:1 treble nm="Grand Piano"
V:1
 z4 z[Q:1/4=100] G2 G | G2 E2- E F2 F | F2 D2- D E2 E | E2 C2- CD=B,C | D2 D2- D F2 F | %5
 F2 D2- D E2 F | G2 C2- C D2 E | F2 =B,2- B, C2 D | ED C2- C c2 c | c3 B- B A2 G | BA G2- G c2 c | %11
 e3 d- d c2 =B | d2 c2- c c2 c | B3 A- A G2 =E | F3 A- A G2 D | E3 G- G F2 C | D3 F EFGD | %17
 ED C4 z2 |] %18

